material/.icons/material/apple-ios.svg

<svg xmlns="http://www.w3.org/2000/svg" viewBox="0 0 24 24"><path d="M2.09 16.8h1.66V9.76H2.09m.83-.92a.9.9 0 00.92-.9c0-.5-.4-.9-.92-.9a.9.9 0 00-.92.9c0 .5.4.9.92.9m6.33-1.78C6.46 7.06 4.7 8.96 4.7 12c0 3.06 1.76 4.96 4.55 4.96s4.55-1.9 4.55-4.96c0-3.04-1.76-4.94-4.55-4.94m0 1.44c1.71 0 2.8 1.37 2.8 3.5 0 2.15-1.09 3.5-2.8 3.5-1.71 0-2.79-1.35-2.79-3.5 0-2.13 1.08-3.5 2.79-3.5m5.25 5.61c.07 1.76 1.5 2.85 3.72 2.85 2.32 0 3.78-1.14 3.78-2.96 0-1.43-.82-2.23-2.77-2.68l-1.1-.25c-1.18-.28-1.66-.65-1.66-1.29 0-.78.73-1.33 1.81-1.33 1.1 0 1.85.55 1.93 1.44h1.63c-.04-1.69-1.43-2.83-3.55-2.83-2.08 0-3.56 1.15-3.56 2.85 0 1.37.83 2.22 2.6 2.62l1.24.29c1.21.29 1.7.68 1.7 1.38 0 .8-.8 1.37-1.96 1.37s-2.05-.57-2.15-1.46H14.5z"/></svg>

<?xml version="1.0" encoding="UTF-8"?><!DOCTYPE svg PUBLIC "-//W3C//DTD SVG 1.1//EN" "http://www.w3.org/Graphics/SVG/1.1/DTD/svg11.dtd"><svg xmlns="http://www.w3.org/2000/svg" xmlns:xlink="http://www.w3.org/1999/xlink" version="1.1" id="mdi-apple-ios" width="24" height="24" viewBox="0 0 24 24"><path d="M2.09 16.8H3.75V9.76H2.09M2.92 8.84C3.44 8.84 3.84 8.44 3.84 7.94C3.84 7.44 3.44 7.04 2.92 7.04C2.4 7.04 2 7.44 2 7.94C2 8.44 2.4 8.84 2.92 8.84M9.25 7.06C6.46 7.06 4.7 8.96 4.7 12C4.7 15.06 6.46 16.96 9.25 16.96C12.04 16.96 13.8 15.06 13.8 12C13.8 8.96 12.04 7.06 9.25 7.06M9.25 8.5C10.96 8.5 12.05 9.87 12.05 12C12.05 14.15 10.96 15.5 9.25 15.5C7.54 15.5 6.46 14.15 6.46 12C6.46 9.87 7.54 8.5 9.25 8.5M14.5 14.11C14.57 15.87 16 16.96 18.22 16.96C20.54 16.96 22 15.82 22 14C22 12.57 21.18 11.77 19.23 11.32L18.13 11.07C16.95 10.79 16.47 10.42 16.47 9.78C16.47 9 17.2 8.45 18.28 8.45C19.38 8.45 20.13 9 20.21 9.89H21.84C21.8 8.2 20.41 7.06 18.29 7.06C16.21 7.06 14.73 8.21 14.73 9.91C14.73 11.28 15.56 12.13 17.33 12.53L18.57 12.82C19.78 13.11 20.27 13.5 20.27 14.2C20.27 15 19.47 15.57 18.31 15.57C17.15 15.57 16.26 15 16.16 14.11H14.5Z" /></svg>
